X:1
T:Wake Every Tuneful String
T:Robert Lowry
T:Wake Every Tuneful String
T:Public Domain
T:Public Domain
C:Robert Lowry
Z:Public Domain
%%score ( 1 2 ) ( 3 4 )
L:1/8
M:3/4
K:G
V:1 treble 
V:2 treble 
V:3 bass 
V:4 bass 
V:1
 [GB]2 [DG]2 [GB]2 | [Ac]3 [GB] [FA]2 | [FA]2 [DF]2 [FA]2 | [GB]3 [FA] G2 | [EG]2 ([CE]2 EG) | %5
w: 1.~Wake ev- ery|tune- ful string,|Let ev- ery|crea- ture sing,|ye, praise * *|
w: 2.~Great His e-|ter- nal name,|Now and for|aye the same;|ye, praise * *|
w: 3.~He spake, and|it was done,|His arm the|vic- tory won;|ye, praise * *|
w: 4.~An- gels a-|round His throne,|Mak- ing His|won- ders known,|ye, praise * *|
 [DG]2 ([B,D]2 GB) | [Gd]2 [Fc]2 [GB]2 | [FA]6 | [Ac]2 [GB]2 [FA]2 | [GB]3 [Ge] [Gd]2 | %10
w: ye, Praise * *|ye the Lord;|Mak-|er of earth|and sea, We|
w: ye, Praise * *|ye the Lord;|Firm|as the mount-|ain band Gird-|
w: ye, Praise * *|ye the Lord;|He,|from se- pul-|chral night Lift-|
w: ye, Praise * *|ye the Lord;|O|ye re- deemed|on high, Down|
 [Ac]2 [GB]2 [FA]2 | [GB]3 [Ge] [Gd]2 | [Ge]2 [Ge]2 [Ge]2 | [Gd]3 [Gc] [GB]2 | [Ac]2 [GB]2 [FA]2 | %15
w: lift our hearts|to Thee, With|loft- y mel-|o- dy; Praise|ye the Lord.|
w: ing the fer-|tile land, His|truth shall ev-|er stand; Praise|ye the Lord.|
w: ing the soul|to light, Crowns|it with glo-|ry bright; Praise|ye the Lord.|
w: thro’ the a-|zure sky Ech-|o the glad|re- ply— Praise|ye the Lord.|
 G6 |] %16
w: |
w: |
w: |
w: |
V:2
 x6 | x6 | x6 | x4 G2 | x6 | x6 | x6 | x6 | x6 | x6 | x6 | x6 | x6 | x6 | x6 | G6 |] %16
w: |||Praise|||||||||||||
w: |||Praise|||||||||||||
w: |||Praise|||||||||||||
w: |||Praise|||||||||||||
V:3
 [G,D]2 [G,B,]2 [G,D]2 | [D,D]3 [D,D] [D,D]2 | [D,D]2 [D,A,]2 [D,D]2 | [D,D]3 [D,C] [G,B,]2 | %4
 [C,C]2 [C,G,]2 z2 | [G,B,]2 G,2 z2 | [B,D]2 [A,D]2 [G,D]2 | [D,D]6 | [D,D]2 [D,D]2 [D,D]2 | %9
 [G,D]3 [G,C] [G,B,]2 | [D,D]2 [D,D]2 [D,D]2 | [G,D]3 [G,C] [G,B,]2 | [C,C]2 (C,D,) (E,F,) | %13
 [G,B,]3 [G,E] [G,D]2 | [C,E]2 [D,D]2 [D,C]2 | [G,,B,]6 |] %16
V:4
 x6 | x6 | x6 | x6 | x6 | x2 G,2 x2 | x6 | x6 | x6 | x6 | x6 | x6 | x2 C2 C2 | x6 | x6 | x6 |] %16

